src/assets/cards/6H.svg

<svg clip-rule="evenodd" fill-rule="evenodd" stroke-linejoin="round" stroke-miterlimit="2" viewBox="0 0 934 1300" xmlns="http://www.w3.org/2000/svg"><g fill="#d40000" fill-rule="nonzero"><path d="m35.439 150.393c-1.694-11.441-1.669-41.02-.276-49.751 4.29-26.794 14.727-39.038 32.188-43.064 16.948-3.889 40.782.451 46.013 22.843l-14.188.263c-7.677-15.141-27.07-11.089-37.984-4.503-8.731 5.256-12.669 27.158-10.976 28.513-.013 0 16.483-11.992 29.479-11.102 27.786 2.835 39.238 26.481 38.272 48.822-.878 26.87-9.558 48.346-39.012 49.776-27.986-1.054-40.819-16.044-43.516-41.797zm69.043-7.1c.164-18.654-8.467-32.603-24.787-34.133-16.308-1.543-32.766 14.087-31.624 33.091 1.141 19.068 8.655 35.137 28.438 35.037 21.275-.088 27.873-20.724 27.973-33.995z"/><path d="m896.89 1149.61c1.706 11.44 1.681 41.02.276 49.75-4.277 26.79-14.714 39.04-32.176 43.06-16.947 3.9-40.781-.44-46.012-22.84l14.187-.27c7.677 15.14 27.071 11.09 37.984 4.51 8.719-5.26 12.67-27.16 10.977-28.51.012 0-16.484 11.99-29.479 11.1-27.786-2.84-39.239-26.48-38.273-48.83.878-26.87 9.559-48.34 39-49.77 27.999 1.05 40.832 16.04 43.516 41.8zm-69.043 7.1c-.151 18.65 8.48 32.59 24.8 34.13 16.307 1.54 32.765-14.09 31.624-33.09-1.142-19.07-8.668-35.13-28.451-35.04-21.275.09-27.86 20.73-27.973 34z"/><path d="m37.182 247.788c-6.625-14.471-7.333-39.192 12.375-42.534 14.833-1.912 20.875 4.992 22.083 15.592.584 3.096 2.334 3.283 2.875-.246.875-10.871 11.625-17.217 20.042-15.625 23.042 3.942 21.667 29.288 14.167 46.483-11.375 22.83-23.334 37.238-34.375 60.217-12.625-23.921-27.084-43.354-37.167-63.887z"/><path d="m184.224 118.575c29.75-1.979 45.25 23.446 48.291 43.483 1.792 3.184 2.792 2.288 3.5-.175 1.459-25.725 24.459-46.75 45.792-43.875 34.708.45 55.792 39.063 49.875 71.742-7.25 39.925-28.75 63.963-45.042 88.725-18.416 25.633-43.208 62.663-51.208 80.483 0 0-25.208-38.35-58-83.454-21.917-30.162-39.458-62.846-41.083-90.983-1.875-32.146 11.333-60.963 47.875-65.946z"/><path d="m648.932 118.575c29.75-1.979 45.292 23.446 48.292 43.483 1.833 3.184 2.791 2.288 3.5-.175 1.458-25.725 24.5-46.75 45.791-43.875 34.709.45 55.792 39.063 49.875 71.742-7.25 39.925-28.75 63.963-45.041 88.725-18.417 25.633-43.209 62.663-51.209 80.483 0 0-25.208-38.35-57.958-83.454-21.958-30.162-39.5-62.846-41.125-90.983-1.875-32.146 11.333-60.963 47.875-65.946z"/><path d="m648.932 530.629c29.75-1.975 45.292 23.45 48.292 43.488 1.833 3.183 2.791 2.283 3.5-.179 1.458-25.725 24.5-46.75 45.791-43.875 34.709.454 55.792 39.066 49.875 71.745-7.25 39.925-28.75 63.963-45.041 88.721-18.417 25.638-43.209 62.667-51.209 80.488 0 0-25.208-38.354-57.958-83.459-21.958-30.158-39.5-62.841-41.125-90.979-1.875-32.146 11.333-60.966 47.875-65.95z"/><path d="m184.224 530.629c29.75-1.975 45.25 23.45 48.291 43.488 1.792 3.183 2.792 2.283 3.5-.179 1.459-25.725 24.459-46.75 45.792-43.875 34.708.454 55.792 39.066 49.875 71.745-7.25 39.925-28.75 63.963-45.042 88.721-18.416 25.638-43.208 62.667-51.208 80.488 0 0-25.208-38.354-58-83.459-21.917-30.158-39.458-62.841-41.083-90.979-1.875-32.146 11.333-60.966 47.875-65.95z"/><path d="m184.224 1181.01c29.75 1.98 45.25-23.44 48.291-43.48 1.792-3.18 2.792-2.29 3.5.17 1.459 25.73 24.459 46.75 45.792 43.88 34.708-.45 55.792-39.06 49.875-71.74-7.25-39.93-28.75-63.97-45.042-88.73-18.416-25.631-43.208-62.66-51.208-80.481 0 0-25.208 38.35-58 83.451-21.917 30.17-39.458 62.85-41.083 90.99-1.875 32.14 11.333 60.96 47.875 65.94z"/><path d="m648.932 1181.01c29.75 1.98 45.292-23.44 48.292-43.48 1.833-3.18 2.791-2.29 3.5.17 1.458 25.73 24.5 46.75 45.791 43.88 34.709-.45 55.792-39.06 49.875-71.74-7.25-39.93-28.75-63.97-45.041-88.73-18.417-25.631-43.209-62.66-51.209-80.481 0 0-25.208 38.35-57.958 83.451-21.958 30.17-39.5 62.85-41.125 90.99-1.875 32.14 11.333 60.96 47.875 65.94z"/><path d="m823.89 1043.03c-6.583 14.47-7.291 39.19 12.375 42.53 14.875 1.91 20.917-4.99 22.084-15.59.625-3.1 2.375-3.29 2.916.24.834 10.87 11.625 17.22 20 15.63 23.042-3.94 21.709-29.29 14.167-46.49-11.375-22.83-23.333-37.23-34.333-60.212-12.667 23.922-27.125 43.352-37.209 63.892z"/></g></svg>

<?xml version="1.0" encoding="UTF-8" standalone="no"?>
<!DOCTYPE svg PUBLIC "-//W3C//DTD SVG 1.1//EN" "http://www.w3.org/Graphics/SVG/1.1/DTD/svg11.dtd">
<svg width="100%" height="100%" viewBox="0 0 934 1300" version="1.1" xmlns="http://www.w3.org/2000/svg" xmlns:xlink="http://www.w3.org/1999/xlink" xml:space="preserve" xmlns:serif="http://www.serif.com/" style="fill-rule:evenodd;clip-rule:evenodd;stroke-linejoin:round;stroke-miterlimit:2;">
    <g>
        <g id="path7108">
            <path d="M35.439,150.393C33.745,138.952 33.77,109.373 35.163,100.642C39.453,73.848 49.89,61.604 67.351,57.578C84.299,53.689 108.133,58.029 113.364,80.421L99.176,80.684C91.499,65.543 72.106,69.595 61.192,76.181C52.461,81.437 48.523,103.339 50.216,104.694C50.203,104.694 66.699,92.702 79.695,93.592C107.481,96.427 118.933,120.073 117.967,142.414C117.089,169.284 108.409,190.76 78.955,192.19C50.969,191.136 38.136,176.146 35.439,150.393ZM104.482,143.293C104.646,124.639 96.015,110.69 79.695,109.16C63.387,107.617 46.929,123.247 48.071,142.251C49.212,161.319 56.726,177.388 76.509,177.288C97.784,177.2 104.382,156.564 104.482,143.293Z" style="fill:rgb(212,0,0);fill-rule:nonzero;"/>
        </g>
        <g id="path7161">
            <path d="M896.89,1149.61C898.596,1161.05 898.571,1190.63 897.166,1199.36C892.889,1226.15 882.452,1238.4 864.99,1242.42C848.043,1246.32 824.209,1241.98 818.978,1219.58L833.165,1219.31C840.842,1234.45 860.236,1230.4 871.149,1223.82C879.868,1218.56 883.819,1196.66 882.126,1195.31C882.138,1195.31 865.642,1207.3 852.647,1206.41C824.861,1203.57 813.408,1179.93 814.374,1157.58C815.252,1130.71 823.933,1109.24 853.374,1107.81C881.373,1108.86 894.206,1123.85 896.89,1149.61ZM827.847,1156.71C827.696,1175.36 836.327,1189.3 852.647,1190.84C868.954,1192.38 885.412,1176.75 884.271,1157.75C883.129,1138.68 875.603,1122.62 855.82,1122.71C834.545,1122.8 827.96,1143.44 827.847,1156.71Z" style="fill:rgb(212,0,0);fill-rule:nonzero;"/>
        </g>
        <g id="path8642">
            <path d="M37.182,247.788C30.557,233.317 29.849,208.596 49.557,205.254C64.39,203.342 70.432,210.246 71.64,220.846C72.224,223.942 73.974,224.129 74.515,220.6C75.39,209.729 86.14,203.383 94.557,204.975C117.599,208.917 116.224,234.263 108.724,251.458C97.349,274.288 85.39,288.696 74.349,311.675C61.724,287.754 47.265,268.321 37.182,247.788Z" style="fill:rgb(212,0,0);fill-rule:nonzero;"/>
        </g>
        <g id="path8530">
            <path d="M184.224,118.575C213.974,116.596 229.474,142.021 232.515,162.058C234.307,165.242 235.307,164.346 236.015,161.883C237.474,136.158 260.474,115.133 281.807,118.008C316.515,118.458 337.599,157.071 331.682,189.75C324.432,229.675 302.932,253.713 286.64,278.475C268.224,304.108 243.432,341.138 235.432,358.958C235.432,358.958 210.224,320.608 177.432,275.504C155.515,245.342 137.974,212.658 136.349,184.521C134.474,152.375 147.682,123.558 184.224,118.575Z" style="fill:rgb(212,0,0);fill-rule:nonzero;"/>
        </g>
        <g id="path8532">
            <path d="M648.932,118.575C678.682,116.596 694.224,142.021 697.224,162.058C699.057,165.242 700.015,164.346 700.724,161.883C702.182,136.158 725.224,115.133 746.515,118.008C781.224,118.458 802.307,157.071 796.39,189.75C789.14,229.675 767.64,253.713 751.349,278.475C732.932,304.108 708.14,341.138 700.14,358.958C700.14,358.958 674.932,320.608 642.182,275.504C620.224,245.342 602.682,212.658 601.057,184.521C599.182,152.375 612.39,123.558 648.932,118.575Z" style="fill:rgb(212,0,0);fill-rule:nonzero;"/>
        </g>
        <g id="path8534">
            <path d="M648.932,530.629C678.682,528.654 694.224,554.079 697.224,574.117C699.057,577.3 700.015,576.4 700.724,573.938C702.182,548.213 725.224,527.188 746.515,530.063C781.224,530.517 802.307,569.129 796.39,601.808C789.14,641.733 767.64,665.771 751.349,690.529C732.932,716.167 708.14,753.196 700.14,771.017C700.14,771.017 674.932,732.663 642.182,687.558C620.224,657.4 602.682,624.717 601.057,596.579C599.182,564.433 612.39,535.613 648.932,530.629Z" style="fill:rgb(212,0,0);fill-rule:nonzero;"/>
        </g>
        <g id="path8536">
            <path d="M184.224,530.629C213.974,528.654 229.474,554.079 232.515,574.117C234.307,577.3 235.307,576.4 236.015,573.938C237.474,548.213 260.474,527.188 281.807,530.063C316.515,530.517 337.599,569.129 331.682,601.808C324.432,641.733 302.932,665.771 286.64,690.529C268.224,716.167 243.432,753.196 235.432,771.017C235.432,771.017 210.224,732.663 177.432,687.558C155.515,657.4 137.974,624.717 136.349,596.579C134.474,564.433 147.682,535.613 184.224,530.629Z" style="fill:rgb(212,0,0);fill-rule:nonzero;"/>
        </g>
        <g id="path8592">
            <path d="M184.224,1181.01C213.974,1182.99 229.474,1157.57 232.515,1137.53C234.307,1134.35 235.307,1135.24 236.015,1137.7C237.474,1163.43 260.474,1184.45 281.807,1181.58C316.515,1181.13 337.599,1142.52 331.682,1109.84C324.432,1069.91 302.932,1045.87 286.64,1021.11C268.224,995.479 243.432,958.45 235.432,940.629C235.432,940.629 210.224,978.979 177.432,1024.08C155.515,1054.25 137.974,1086.93 136.349,1115.07C134.474,1147.21 147.682,1176.03 184.224,1181.01Z" style="fill:rgb(212,0,0);fill-rule:nonzero;"/>
        </g>
        <g id="path8594">
            <path d="M648.932,1181.01C678.682,1182.99 694.224,1157.57 697.224,1137.53C699.057,1134.35 700.015,1135.24 700.724,1137.7C702.182,1163.43 725.224,1184.45 746.515,1181.58C781.224,1181.13 802.307,1142.52 796.39,1109.84C789.14,1069.91 767.64,1045.87 751.349,1021.11C732.932,995.479 708.14,958.45 700.14,940.629C700.14,940.629 674.932,978.979 642.182,1024.08C620.224,1054.25 602.682,1086.93 601.057,1115.07C599.182,1147.21 612.39,1176.03 648.932,1181.01Z" style="fill:rgb(212,0,0);fill-rule:nonzero;"/>
        </g>
        <g id="path8658">
            <path d="M823.89,1043.03C817.307,1057.5 816.599,1082.22 836.265,1085.56C851.14,1087.47 857.182,1080.57 858.349,1069.97C858.974,1066.87 860.724,1066.68 861.265,1070.21C862.099,1081.08 872.89,1087.43 881.265,1085.84C904.307,1081.9 902.974,1056.55 895.432,1039.35C884.057,1016.52 872.099,1002.12 861.099,979.138C848.432,1003.06 833.974,1022.49 823.89,1043.03Z" style="fill:rgb(212,0,0);fill-rule:nonzero;"/>
        </g>
    </g>
</svg>
